X: 1565
T: the Liverpool Hornpipe
%T: crannciuil li.berpuil.
R: hornpipe
%S: s:4 b:18(6+4+4+4)
B: O'Neill's 1850 #1565
Z: Michael Hogan
N: Compacted via repeats and multiple endings [JC]
N: Compacted by using labels and play order [JC]
P: Play (A1A2)x2 + (BA2)x2 + (CA3)x2
M: C|
L: 1/8
K: D
"A"[|] (AG) |: FDFA dfaf | gfec dcBA |1,3 G2BG F2AF | EDEF GFED :|2,4 dfaf bgec | d2d2 d2 :|
"B"|: A2 | d2fd c2ec | BABc dcBA | G2BG F2AF | EDEF GF"^->A2"ED |]
"C"|: A2 | dfdf cece | Bcde dcBA | GBGB FAFA | EFGA GFED ||
"^A3"|| FDFA dfaf | gefd dcBA | afdf gece | d2d2 d2 :|
